icons/24px/construction.svg

<?xml version="1.0" encoding="UTF-8"?>
<svg id="Layer_1" data-name="Layer 1" xmlns="http://www.w3.org/2000/svg" viewBox="0 0 24 24">
  <defs>
    <style>
      .cls-1 {
        fill-rule: evenodd;
        stroke-width: 0px;
      }
    </style>
  </defs>
  <path class="cls-1" d="m4,4c-1.1046,0-2,.8954-2,2v5c0,1.1046.8954,2,2,2h3v5H2.4c-.2209,0-.4.1791-.4.4v1.2c0,.2209.1791.4.4.4h19.2c.2209,0,.4-.1791.4-.4v-1.2c0-.2209-.1791-.4-.4-.4h-4.6v-5h3c1.1046,0,2-.8954,2-2v-5c0-1.1046-.8954-2-2-2H4Zm11,9v5h-6v-5h6Zm-6-7h-4.8947v5h1.3947l3.5-5Zm2.5,0l-3.5,5h4.5l3.5-5h-4.5Zm7,0l-3.5,5h4.8947v-5h-1.3947Z"/>
</svg>

<svg width="24" height="24" viewBox="0 0 24 24" fill="none" xmlns="http://www.w3.org/2000/svg">
<path fill-rule="evenodd" clip-rule="evenodd" d="M4 4C2.89543 4 2 4.89543 2 6V11C2 12.1046 2.89543 13 4 13H7V18H2.4C2.17909 18 2 18.1791 2 18.4V19.6C2 19.8209 2.17909 20 2.4 20H21.6C21.8209 20 22 19.8209 22 19.6V18.4C22 18.1791 21.8209 18 21.6 18H17V13H20C21.1046 13 22 12.1046 22 11V6C22 4.89543 21.1046 4 20 4H4ZM15 13V18H9V13H15ZM9 6H4.10526V11H5.5L9 6ZM11.5 6L8 11H12.5L16 6H11.5ZM18.5 6L15 11H19.8947V6H18.5Z" fill="black"/>
</svg>
